X: 32489
T: Plane Of The Plank, The
R: hornpipe
M: 4/4
K: Gmajor
|:(3DEF|GABd g2fg|eGce d2Bd|cece d2BG|DFAB cAFA|
BGBd g2fg|eceg f2ga|bgdB cGEG|(3FED BA G2:|
|:(3ABc|d2d^c dAFA|BAGF G2AB|c2cd edcB|Adfg a2fa|
g2dg e2ce|d2Bd cece|dcAG FDBA|G2 (3FGA G2:|

